build/svg/cmd/de/lc_italic.svg

<?xml version="1.0" encoding="UTF-8" standalone="no"?>
<svg
   xmlns:dc="http://purl.org/dc/elements/1.1/"
   xmlns:cc="http://creativecommons.org/ns#"
   xmlns:rdf="http://www.w3.org/1999/02/22-rdf-syntax-ns#"
   xmlns:svg="http://www.w3.org/2000/svg"
   xmlns="http://www.w3.org/2000/svg"
   xmlns:sodipodi="http://sodipodi.sourceforge.net/DTD/sodipodi-0.dtd"
   xmlns:inkscape="http://www.inkscape.org/namespaces/inkscape"
   viewBox="0 0 24 24"
   version="1.1"
   id="svg4"
   sodipodi:docname="lc_italic.svg"
   inkscape:export-filename="/home/jupiter007/Libreoffice yaru theme fullcolor/build/cmd/de/lc_italic.png"
   inkscape:export-xdpi="96"
   inkscape:export-ydpi="96"
   inkscape:version="0.92.5 (2060ec1f9f, 2020-04-08)">
  <metadata
     id="metadata10">
    <rdf:RDF>
      <cc:Work
         rdf:about="">
        <dc:format>image/svg+xml</dc:format>
        <dc:type
           rdf:resource="http://purl.org/dc/dcmitype/StillImage" />
      </cc:Work>
    </rdf:RDF>
  </metadata>
  <defs
     id="defs8">
    <radialGradient
       id="a"
       cx="13"
       cy="7.1586871"
       gradientTransform="matrix(-2.8900222,2.5e-7,-3.8e-7,-4.4461878,46.788008,34.328348)"
       gradientUnits="userSpaceOnUse"
       r="4.4982362">
      <stop
         offset="0"
         stop-color="#737373"
         id="stop2" />
      <stop
         offset=".26238"
         stop-color="#636363"
         id="stop4" />
      <stop
         offset=".704952"
         stop-color="#4b4b4b"
         id="stop6" />
      <stop
         offset="1"
         stop-color="#3f3f3f"
         id="stop8" />
    </radialGradient>
  </defs>
  <sodipodi:namedview
     pagecolor="#ffffff"
     bordercolor="#666666"
     borderopacity="1"
     objecttolerance="10"
     gridtolerance="10"
     guidetolerance="10"
     inkscape:pageopacity="0"
     inkscape:pageshadow="2"
     inkscape:window-width="1920"
     inkscape:window-height="1011"
     id="namedview6"
     showgrid="true"
     inkscape:zoom="27.812867"
     inkscape:cx="11.803354"
     inkscape:cy="13.364052"
     inkscape:window-x="1920"
     inkscape:window-y="32"
     inkscape:window-maximized="1"
     inkscape:current-layer="svg4">
    <inkscape:grid
       type="xygrid"
       id="grid817" />
  </sodipodi:namedview>
  <path
     id="path845"
     d="M 7.1953125 3.9980469 L 4 20 L 7.0351562 20 L 8.0449219 14.958984 L 10.050781 13.119141 L 13 20 L 13.492188 20 L 15.802734 20 L 16 20 L 12.105469 11.236328 L 20 4 L 18.789062 4 L 18.791016 3.9980469 L 16.501953 3.9980469 L 10.330078 10.160156 L 8.6328125 12 L 10.232422 3.9980469 L 7.1953125 3.9980469 z "
     style="fill:#000000;stroke:#000000;stroke-opacity:1;opacity:0.6;stroke-width:2;stroke-miterlimit:4;stroke-dasharray:none;stroke-linejoin:round" />
  <path
     style="fill:#ffffff;stroke:none;stroke-opacity:0.6"
     d="M 7.1953125 3.9980469 L 4 20 L 7.0351562 20 L 8.0449219 14.958984 L 10.050781 13.119141 L 13 20 L 13.492188 20 L 15.802734 20 L 16 20 L 12.105469 11.236328 L 20 4 L 18.789062 4 L 18.791016 3.9980469 L 16.501953 3.9980469 L 10.330078 10.160156 L 8.6328125 12 L 10.232422 3.9980469 L 7.1953125 3.9980469 z "
     id="path33" />
</svg>

<svg xmlns="http://www.w3.org/2000/svg" viewBox="0 0 24 24"><path d="M7.195 3.998L4 20h3.035l1.01-5.041 2.006-1.84L13 20h3l-3.895-8.764L20 4h-1.21l.001-.002h-2.289L10.33 10.16 8.633 12l1.6-8.002H7.194z" stroke="#000" opacity=".6" stroke-width="2" stroke-linejoin="round"/><path d="M7.195 3.998L4 20h3.035l1.01-5.041 2.006-1.84L13 20h3l-3.895-8.764L20 4h-1.21l.001-.002h-2.289L10.33 10.16 8.633 12l1.6-8.002H7.194z" fill="#fff"/></svg>
